X: 42706
T: Whistling Bitch, The
R: reel
M: 4/4
K: Dmajor
d3 d2 c de|fedA BAFE|D3 d2 A Bd|ABgf eABc|
d3 d2 c de|fedA BAFE|DFAF GBgf|1 eABc dgfe:|2 eABc d2 ag||
fddd edBA|fddd faba|fddd edBA|G3 F E2 FE|
D3 E F3 A|BABc dBAF|DFAF GBgf|1 eABc d2 ag:|2 eABc dgfe||

